images_elementary_svg/cmd/lc_autooutline.svg

<svg height="24" width="24" xmlns="http://www.w3.org/2000/svg" xmlns:xlink="http://www.w3.org/1999/xlink"><linearGradient id="a" gradientUnits="userSpaceOnUse" x1="14.417044" x2="1.164339" y1="4.476628" y2="10.218431"><stop offset="0" stop-color="#fff"/><stop offset="1" stop-color="#fff" stop-opacity="0"/></linearGradient><radialGradient id="b" cx="6.702713" cy="73.615715" gradientTransform="matrix(1.6600963 0 0 .36315008 .963735 -6.267669)" gradientUnits="userSpaceOnUse" r="7.228416"><stop offset="0"/><stop offset="1" stop-opacity="0"/></radialGradient><linearGradient id="c" gradientUnits="userSpaceOnUse" x1=".655513" x2="14.727656" xlink:href="#d" y1="11.822087" y2="1.32404"/><linearGradient id="d"><stop offset="0" stop-color="#fff3cb"/><stop offset=".26238" stop-color="#fdde76"/><stop offset=".66093999" stop-color="#f9c440"/><stop offset="1" stop-color="#e48b20"/></linearGradient><radialGradient id="e" cx="32.5" cy="16.5625" gradientTransform="matrix(.13600338 .32887282 -.25782279 .11298813 11.149645 -7.537857)" gradientUnits="userSpaceOnUse" r="14.4375" xlink:href="#d"/><filter id="f" color-interpolation-filters="sRGB" height="1.324258" width="1.386852" x="-.193426" y="-.162129"><feGaussianBlur stdDeviation=".67849208"/></filter><linearGradient id="g" gradientTransform="matrix(.26725589 0 0 1.157552 9.315594 -10.704165)" gradientUnits="userSpaceOnUse" x1="-32.957481" x2="-25.474016" y1="27.388975" y2="27.388975"><stop offset="0" stop-color="#2e3436"/><stop offset=".64444447" stop-color="#888a85"/><stop offset="1" stop-color="#555753"/></linearGradient><linearGradient id="h" gradientTransform="matrix(.77602087 .23906428 -.31605097 .56747902 -20.167798 4.551095)" gradientUnits="userSpaceOnUse" x1="27.52779" x2="30.419695" y1="4.16702" y2="2.948735"><stop offset="0" stop-color="#eeeeec"/><stop offset=".78888887" stop-color="#fff"/><stop offset="1" stop-color="#eeeeec"/></linearGradient><linearGradient id="i" gradientTransform="matrix(.44576989 0 0 .44993664 .801525 -.024539)" gradientUnits="userSpaceOnUse" x1="26.243305" x2="26.243305" xlink:href="#l" y1="17.83482" y2="73.398201"/><linearGradient id="j" gradientTransform="matrix(.44576989 0 0 .44993664 .801525 -.024539)" gradientUnits="userSpaceOnUse" x1="26.243305" x2="26.243305" xlink:href="#l" y1="33.392567" y2="88.955948"/><linearGradient id="k" gradientTransform="matrix(.44576989 0 0 .44993664 .801525 -.024539)" gradientUnits="userSpaceOnUse" x1="26.243305" x2="26.243305" xlink:href="#l" y1="4.354743" y2="57.840454"/><linearGradient id="l" gradientTransform="matrix(.44576989 0 0 .44993664 .801525 -.024539)" gradientUnits="userSpaceOnUse" x1="25.132275" x2="25.132275" y1="15.499894" y2="48.395687"><stop offset="0" stop-color="#fafafa"/><stop offset="1" stop-color="#e2e1de"/></linearGradient><g transform="translate(0 -3)"><rect fill="url(#k)" height="4" rx=".527778" ry=".555556" width="5" x="16.5" y="18.5"/><path d="m16.5 18.5h5v4h-5z" fill="none" stroke="#575757" stroke-linecap="square" stroke-linejoin="round" stroke-opacity=".529412"/></g><g transform="translate(0 -9)"><rect fill="url(#i)" height="4" rx=".527778" ry=".555556" width="5" x="16.5" y="18.5"/><path d="m16.5 18.5h5v4h-5z" fill="none" stroke="#575757" stroke-linecap="square" stroke-linejoin="round" stroke-opacity=".529412"/></g><g transform="translate(0 -15)"><rect fill="url(#j)" height="4" rx=".527778" ry=".555556" width="5" x="16.5" y="18.5"/><path d="m16.5 18.5h5v4h-5z" fill="none" stroke="#575757" stroke-linecap="square" stroke-linejoin="round" stroke-opacity=".529412"/></g><g transform="matrix(-1 0 0 1 23.817493 0)"><path d="m-.21353815 8.955379c13.01421415.825309 4.81258425-6.687757 14.86944815-6.9271329l2.526834 5.3100242c-4.589328-2.1399165-7.728547 8.8538297-17.45599893 2.3934247z" fill="url(#a)" fill-rule="evenodd" opacity=".444444"/><path d="m24.090748 20.465883c0 1.449748-5.372523 2.625-11.999865 2.625-6.627343 0-11.999865-1.175252-11.999865-2.625 0-1.449747 5.372522-2.625 11.999865-2.625 6.627342 0 11.999865 1.175253 11.999865 2.625z" fill="url(#b)" opacity=".2"/><path d="m9.9746091 1.1054688-.101562 2.4785156-1.5957033.8359375-.5-.28125-.017578-1.4765625-1.046875.9648437-1.4101562-.4414062.59375 1.2929687-.8554688 1.2050782 1.4140625-.1640626.8828125 1.1855469.2792969-1.3964843.7382813-.25 1.5625001.5800781.4316399 2.5390625 1.539063-1.9453125 2.546875.375-1.375-2.0664063 1.142578-2.3046875-2.386719.6679688zm-5.5234372 4.3671874-.8125.75-1.09375-.34375.4609375 1.0058594-.6640625.9335938 1.0976562-.1269532.6835938.9199218.2167969-1.0839842 1.0878906-.3652344-.9628906-.5410156zm3.7128906.8925782-1.1835937 1.0898437-1.5957032-.4980469.671875 1.4628908-.9648437 1.361328 1.5976562-.185547.9960938 1.339844.3164062-1.578125 1.5839844-.533203-1.4042969-.7890628zm-6.2207031 1.5859375-.296875 1.1191411-1.15820315.3125.97070315.626953-.060547 1.199218.8964844-.730468 1.1230469.429687-.4179688-1.080078.7539062-.933594-1.1542968.06445z" fill="url(#c)"/><path d="m13.263114 9.769977c-2.055779.900922-4.601427-.494534-5.685864-3.116837-1.084439-2.622304-.297012-5.478444 1.758767-6.37936679 2.055778-.9009236 4.601426.4945301 5.685864 3.11683479 1.084439 2.622304.297012 5.478445-1.758767 6.379369z" fill="url(#e)" filter="url(#f)" opacity=".483"/><g transform="matrix(1.0583533 -.61104055 .51705714 .89556923 3.108729 -5.864404)"><path d="m.5 18v12.4375c0 .5817.297334 1.0625.666667 1.0625h.666667c.369333 0 .666666-.4808.666666-1.0625v-12.4375z" fill="url(#g)" fill-rule="evenodd"/><rect fill="none" height="21" opacity=".3" rx=".74907" ry=".929487" stroke="#000" stroke-width=".814307" width="2" x=".5" y="10.5"/><path d="m1.166667 10.5c-.369333 0-.666667.4808-.666667 1.0625v6.4375h2v-6.4375c0-.5817-.297333-1.0625-.666666-1.0625z" fill="url(#h)" fill-rule="evenodd" opacity=".9"/></g></g></svg>

<?xml version="1.0" encoding="UTF-8" standalone="no"?>
<svg
   xmlns:dc="http://purl.org/dc/elements/1.1/"
   xmlns:cc="http://creativecommons.org/ns#"
   xmlns:rdf="http://www.w3.org/1999/02/22-rdf-syntax-ns#"
   xmlns:svg="http://www.w3.org/2000/svg"
   xmlns="http://www.w3.org/2000/svg"
   xmlns:xlink="http://www.w3.org/1999/xlink"
   xmlns:sodipodi="http://sodipodi.sourceforge.net/DTD/sodipodi-0.dtd"
   xmlns:inkscape="http://www.inkscape.org/namespaces/inkscape"
   height="24"
   width="24"
   version="1.1"
   id="svg84"
   sodipodi:docname="lc_autooutline.svg"
   inkscape:version="0.92.3 (unknown)"
   inkscape:export-filename="/home/rizmut/Dokumen/Rizmut/Github/libreoffice-style-elementary/images_elementary/cmd/lc_autooutline.png"
   inkscape:export-xdpi="96"
   inkscape:export-ydpi="96">
  <metadata
     id="metadata90">
    <rdf:RDF>
      <cc:Work
         rdf:about="">
        <dc:format>image/svg+xml</dc:format>
        <dc:type
           rdf:resource="http://purl.org/dc/dcmitype/StillImage" />
        <dc:title></dc:title>
      </cc:Work>
    </rdf:RDF>
  </metadata>
  <defs
     id="defs88">
    <linearGradient
       inkscape:collect="always"
       xlink:href="#l"
       id="linearGradient905"
       gradientUnits="userSpaceOnUse"
       gradientTransform="matrix(0.44576989,0,0,0.44993664,0.801525,-0.024539)"
       x1="26.243305"
       y1="4.354743"
       x2="26.243305"
       y2="57.840454" />
  </defs>
  <sodipodi:namedview
     pagecolor="#ffffff"
     bordercolor="#666666"
     borderopacity="1"
     objecttolerance="10"
     gridtolerance="10"
     guidetolerance="10"
     inkscape:pageopacity="0"
     inkscape:pageshadow="2"
     inkscape:window-width="1366"
     inkscape:window-height="706"
     id="namedview86"
     showgrid="true"
     inkscape:zoom="9.8333333"
     inkscape:cx="0.62979536"
     inkscape:cy="9.8484177"
     inkscape:window-x="0"
     inkscape:window-y="0"
     inkscape:window-maximized="1"
     inkscape:current-layer="svg84">
    <inkscape:grid
       type="xygrid"
       id="grid897"
       spacingx="0.5"
       spacingy="0.5"
       empspacing="2" />
  </sodipodi:namedview>
  <linearGradient
     id="a"
     gradientUnits="userSpaceOnUse"
     x1="14.417044"
     x2="1.164339"
     y1="4.476628"
     y2="10.218431">
    <stop
       offset="0"
       stop-color="#fff"
       id="stop2" />
    <stop
       offset="1"
       stop-color="#fff"
       stop-opacity="0"
       id="stop4" />
  </linearGradient>
  <radialGradient
     id="b"
     cx="6.702713"
     cy="73.615715"
     gradientTransform="matrix(1.6600963,0,0,0.36315008,0.963735,-6.267669)"
     gradientUnits="userSpaceOnUse"
     r="7.228416">
    <stop
       offset="0"
       id="stop7" />
    <stop
       offset="1"
       stop-opacity="0"
       id="stop9" />
  </radialGradient>
  <linearGradient
     id="c"
     gradientUnits="userSpaceOnUse"
     x1=".655513"
     x2="14.727656"
     xlink:href="#d"
     y1="11.822087"
     y2="1.32404" />
  <linearGradient
     id="d">
    <stop
       offset="0"
       stop-color="#fff3cb"
       id="stop13" />
    <stop
       offset=".26238"
       stop-color="#fdde76"
       id="stop15" />
    <stop
       offset=".66093999"
       stop-color="#f9c440"
       id="stop17" />
    <stop
       offset="1"
       stop-color="#e48b20"
       id="stop19" />
  </linearGradient>
  <radialGradient
     id="e"
     cx="32.5"
     cy="16.5625"
     gradientTransform="matrix(0.13600338,0.32887282,-0.25782279,0.11298813,11.149645,-7.537857)"
     gradientUnits="userSpaceOnUse"
     r="14.4375"
     xlink:href="#d" />
  <filter
     id="f"
     color-interpolation-filters="sRGB"
     height="1.324258"
     width="1.386852"
     x="-.193426"
     y="-.162129">
    <feGaussianBlur
       stdDeviation=".67849208"
       id="feGaussianBlur23" />
  </filter>
  <linearGradient
     id="g"
     gradientTransform="matrix(0.26725589,0,0,1.157552,9.315594,-10.704165)"
     gradientUnits="userSpaceOnUse"
     x1="-32.957481"
     x2="-25.474016"
     y1="27.388975"
     y2="27.388975">
    <stop
       offset="0"
       stop-color="#2e3436"
       id="stop26" />
    <stop
       offset=".64444447"
       stop-color="#888a85"
       id="stop28" />
    <stop
       offset="1"
       stop-color="#555753"
       id="stop30" />
  </linearGradient>
  <linearGradient
     id="h"
     gradientTransform="matrix(0.77602087,0.23906428,-0.31605097,0.56747902,-20.167798,4.551095)"
     gradientUnits="userSpaceOnUse"
     x1="27.52779"
     x2="30.419695"
     y1="4.16702"
     y2="2.948735">
    <stop
       offset="0"
       stop-color="#eeeeec"
       id="stop33" />
    <stop
       offset=".78888887"
       stop-color="#fff"
       id="stop35" />
    <stop
       offset="1"
       stop-color="#eeeeec"
       id="stop37" />
  </linearGradient>
  <linearGradient
     id="i"
     gradientTransform="matrix(0.44576989,0,0,0.44993664,0.801525,-0.024539)"
     gradientUnits="userSpaceOnUse"
     x1="26.243305"
     x2="26.243305"
     xlink:href="#l"
     y1="17.83482"
     y2="73.398201" />
  <linearGradient
     id="j"
     gradientTransform="matrix(0.44576989,0,0,0.44993664,0.801525,-0.024539)"
     gradientUnits="userSpaceOnUse"
     x1="26.243305"
     x2="26.243305"
     xlink:href="#l"
     y1="33.392567"
     y2="88.955948" />
  <linearGradient
     id="k"
     gradientTransform="matrix(0.44576989,0,0,0.44993664,0.801525,-0.024539)"
     gradientUnits="userSpaceOnUse"
     x1="26.243305"
     x2="26.243305"
     xlink:href="#l"
     y1="4.354743"
     y2="57.840454" />
  <linearGradient
     id="l"
     gradientTransform="matrix(.44576989 0 0 .44993664 .801525 -.024539)"
     gradientUnits="userSpaceOnUse"
     x1="25.132275"
     x2="25.132275"
     y1="15.499894"
     y2="48.395687">
    <stop
       offset="0"
       stop-color="#fafafa"
       id="stop43" />
    <stop
       offset="1"
       stop-color="#e2e1de"
       id="stop45" />
  </linearGradient>
  <g
     id="g943">
    <g
       id="g919">
      <g
         transform="translate(0,-6)"
         id="g52">
        <rect
           height="4"
           rx="0.52777803"
           ry="0.555556"
           width="5"
           x="16.5"
           y="18.5"
           id="rect48"
           style="fill:url(#k)" />
        <path
           d="m 16.5,18.5 h 5 v 4 h -5 z"
           id="path50"
           inkscape:connector-curvature="0"
           style="fill:none;stroke:#575757;stroke-linecap:square;stroke-linejoin:round;stroke-opacity:0.52941188" />
      </g>
      <g
         transform="translate(0,-11)"
         id="g58">
        <rect
           height="4"
           rx="0.52777803"
           ry="0.555556"
           width="5"
           x="16.5"
           y="18.5"
           id="rect54"
           style="fill:url(#i)" />
        <path
           d="m 16.5,18.5 h 5 v 4 h -5 z"
           id="path56"
           inkscape:connector-curvature="0"
           style="fill:none;stroke:#575757;stroke-linecap:square;stroke-linejoin:round;stroke-opacity:0.52941182" />
      </g>
      <g
         transform="translate(0,-16)"
         id="g64">
        <rect
           height="4"
           rx="0.52777803"
           ry="0.555556"
           width="5"
           x="16.5"
           y="18.5"
           id="rect60"
           style="fill:url(#j)" />
        <path
           d="m 16.5,18.5 h 5 v 4 h -5 z"
           id="path62"
           inkscape:connector-curvature="0"
           style="fill:none;stroke:#575757;stroke-linecap:square;stroke-linejoin:round;stroke-opacity:0.52941194" />
      </g>
      <g
         id="g903"
         transform="translate(0,-1)">
        <rect
           style="fill:url(#linearGradient905)"
           id="rect899"
           y="18.5"
           x="16.5"
           width="5"
           ry="0.555556"
           rx="0.52777803"
           height="4" />
        <path
           style="fill:none;stroke:#575757;stroke-linecap:square;stroke-linejoin:round;stroke-opacity:0.52941182"
           inkscape:connector-curvature="0"
           id="path901"
           d="m 16.5,18.5 h 5 v 4 h -5 z" />
      </g>
    </g>
    <g
       id="g82"
       transform="matrix(-1,0,0,1,23.817493,0.909117)">
      <path
         inkscape:connector-curvature="0"
         style="opacity:0.44444401;fill:url(#a);fill-rule:evenodd"
         id="path66"
         d="M -0.21353815,8.955379 C 12.800676,9.780688 4.5990461,2.267622 14.65591,2.0282461 l 2.526834,5.3100242 C 12.593416,5.1983538 9.454197,16.1921 -0.27325493,9.731695 Z" />
      <path
         inkscape:connector-curvature="0"
         style="opacity:0.2;fill:url(#b)"
         id="path68"
         d="m 24.090748,20.465883 c 0,1.449748 -5.372523,2.625 -11.999865,2.625 -6.627343,0 -11.999865,-1.175252 -11.999865,-2.625 0,-1.449747 5.372522,-2.625 11.999865,-2.625 6.627342,0 11.999865,1.175253 11.999865,2.625 z" />
      <path
         inkscape:connector-curvature="0"
         style="fill:url(#c)"
         id="path70"
         d="m 9.9746091,1.1054688 -0.101562,2.4785156 -1.5957033,0.8359375 -0.5,-0.28125 -0.017578,-1.4765625 -1.046875,0.9648437 -1.4101562,-0.4414062 0.59375,1.2929687 -0.8554688,1.2050782 1.4140625,-0.1640626 0.8828125,1.1855469 0.2792969,-1.3964843 0.7382813,-0.25 1.5625001,0.5800781 0.4316399,2.5390625 1.539063,-1.9453125 2.546875,0.375 -1.375,-2.0664063 1.142578,-2.3046875 -2.386719,0.6679688 z m -5.5234372,4.3671874 -0.8125,0.75 -1.09375,-0.34375 L 3.0058594,6.8847656 2.3417969,7.8183594 3.4394531,7.6914062 4.1230469,8.611328 4.3398438,7.5273438 5.4277344,7.1621094 4.4648438,6.6210938 Z M 8.1640625,6.3652344 6.9804688,7.4550781 5.3847656,6.9570312 6.0566406,8.419922 5.0917969,9.78125 6.6894531,9.595703 7.6855469,10.935547 8.0019531,9.357422 9.5859375,8.824219 8.1816406,8.0351562 Z M 1.9433594,7.9511719 1.6464844,9.070313 0.48828125,9.382813 1.4589844,10.009766 1.3984374,11.208984 2.2949218,10.478516 3.4179687,10.908203 2.9999999,9.828125 3.7539061,8.894531 2.5996093,8.958981 Z" />
      <path
         inkscape:connector-curvature="0"
         style="opacity:0.48300003;fill:url(#e);filter:url(#f)"
         id="path72"
         d="M 13.263114,9.769977 C 11.207335,10.670899 8.661687,9.275443 7.57725,6.65314 6.492811,4.030836 7.280238,1.174696 9.336017,0.27377321 c 2.055778,-0.9009236 4.601426,0.4945301 5.685864,3.11683479 1.084439,2.622304 0.297012,5.478445 -1.758767,6.379369 z" />
      <g
         id="g80"
         transform="matrix(1.0583533,-0.61104055,0.51705714,0.89556923,3.108729,-5.864404)">
        <path
           inkscape:connector-curvature="0"
           style="fill:url(#g);fill-rule:evenodd"
           id="path74"
           d="M 0.5,18 V 30.4375 C 0.5,31.0192 0.797334,31.5 1.166667,31.5 H 1.833334 C 2.202667,31.5 2.5,31.0192 2.5,30.4375 V 18 Z" />
        <rect
           style="opacity:0.3;fill:none;stroke:#000000;stroke-width:0.81430697"
           id="rect76"
           y="10.5"
           x="0.5"
           width="2"
           ry="0.92948699"
           rx="0.74906999"
           height="21" />
        <path
           inkscape:connector-curvature="0"
           style="opacity:0.9;fill:url(#h);fill-rule:evenodd"
           id="path78"
           d="M 1.166667,10.5 C 0.797334,10.5 0.5,10.9808 0.5,11.5625 V 18 h 2 V 11.5625 C 2.5,10.9808 2.202667,10.5 1.833334,10.5 Z" />
      </g>
    </g>
  </g>
</svg>
